img/manages-icon4.svg

<svg width="70" height="70" viewBox="0 0 70 70" fill="none" xmlns="http://www.w3.org/2000/svg">
<g clip-path="url(#clip0)">
<path d="M55.4167 70.0001H14.5833C11.3663 70.0001 8.75 67.3838 8.75 64.1668V35.0001C8.75 31.783 11.3663 29.1667 14.5833 29.1667H55.4167C58.6338 29.1667 61.25 31.783 61.25 35.0001V64.1668C61.25 67.3838 58.6338 70.0001 55.4167 70.0001ZM14.5833 32.0834C12.9733 32.0834 11.6667 33.393 11.6667 35.0001V64.1668C11.6667 65.7738 12.9733 67.0834 14.5833 67.0834H55.4167C57.0267 67.0834 58.3333 65.7738 58.3333 64.1668V35.0001C58.3333 33.393 57.0267 32.0834 55.4167 32.0834H14.5833Z" fill="#36A2F4"/>
<path d="M51.0417 32.0833C50.2367 32.0833 49.5833 31.43 49.5833 30.625V17.5C49.5833 9.45875 43.0413 2.91667 35 2.91667C26.9588 2.91667 20.4167 9.45875 20.4167 17.5V30.625C20.4167 31.43 19.7633 32.0833 18.9583 32.0833C18.1533 32.0833 17.5 31.43 17.5 30.625V17.5C17.5 7.84875 25.3488 0 35 0C44.6513 0 52.5 7.84875 52.5 17.5V30.625C52.5 31.43 51.8467 32.0833 51.0417 32.0833Z" fill="#36A2F4"/>
</g>
<defs>
<clipPath id="clip0">
<rect width="70" height="70" fill="white"/>
</clipPath>
</defs>
</svg>

<svg width="70" height="70" fill="none" xmlns="http://www.w3.org/2000/svg"><g clip-path="url(#clip0)" fill="#36A2F4"><path d="M55.417 70H14.583a5.84 5.84 0 01-5.833-5.833V35a5.84 5.84 0 015.833-5.833h40.834A5.84 5.84 0 0161.25 35v29.167A5.84 5.84 0 0155.417 70zM14.583 32.083A2.92 2.92 0 0011.667 35v29.167a2.92 2.92 0 002.916 2.916h40.834a2.92 2.92 0 002.916-2.916V35a2.92 2.92 0 00-2.916-2.917H14.583z"/><path d="M51.042 32.083a1.459 1.459 0 01-1.459-1.458V17.5c0-8.041-6.542-14.583-14.583-14.583S20.417 9.459 20.417 17.5v13.125a1.459 1.459 0 01-2.917 0V17.5C17.5 7.849 25.349 0 35 0s17.5 7.849 17.5 17.5v13.125c0 .805-.653 1.458-1.458 1.458z"/></g><defs><clipPath id="clip0"><path fill="#fff" d="M0 0h70v70H0z"/></clipPath></defs></svg>
